svg/horse_riding-11.svg

<svg data-name="Layer 1" xmlns="http://www.w3.org/2000/svg" width="11" height="11">
    <path d="M4 1a1 1 0 1 1 1 1 1 1 0 0 1-1-1zm6.88 3.5L9 3v-.5L7 5H6l1 1v1.014a.5.5 0 1 1-1 0V6.5L4 5H3a1 1 0 0 0-.8.446A1.189 1.189 0 0 0 1.247 5 1.076 1.076 0 0 0 0 5.988C0 7.3.635 7.471.635 7.471a.33.33 0 0 0 .115.023A.253.253 0 0 0 1 7.25V6a.49.49 0 0 1 .48-.5h.02A.5.5 0 0 1 2 6v2.014l-.3.6a1.609 1.609 0 0 0-.2.6v1.542a.244.244 0 0 0 .244.244.255.255 0 0 0 .256-.244V9.514a.367.367 0 0 1 .1-.3l.9-1.2V9l.467 1.816a.256.256 0 0 0 .242.184.25.25 0 0 0 .25-.25v-.016l-.242-1.61a.6.6 0 0 1 .025-.236l.058-.174L4 8h2v1l.466 1.816a.256.256 0 0 0 .243.184.25.25 0 0 0 .25-.25l-.241-1.626a.6.6 0 0 1 .025-.236L7 8a.877.877 0 0 0 .934-.661L8.5 4.5a.6.6 0 0 0 .71.454.562.562 0 0 0 .143-.07l.9.116a.721.721 0 0 0 .392.1.331.331 0 0 0 .355-.316.406.406 0 0 0-.12-.284zM6 3.5a.51.51 0 0 0-.5-.5h-1a.482.482 0 0 0-.5.5V5h2z"/>
</svg>

<svg id="Layer_1" data-name="Layer 1" xmlns="http://www.w3.org/2000/svg" width="11" height="11" viewBox="0 0 11 11">
  <title>horse-riding-11</title>
  <path d="M4,1A1,1,0,1,1,5,2,1,1,0,0,1,4,1Zm6.88,3.5L9,3V2.5L7,5H6L7,6V7.014a.5.5,0,1,1-1,0V6.5L4,5H3a1,1,0,0,0-.8.446A1.189,1.189,0,0,0,1.247,5,1.076,1.076,0,0,0,0,5.988C0,7.3.635,7.471.635,7.471a.33.33,0,0,0,.115.023A.253.253,0,0,0,1,7.25V6a.49.49,0,0,1,.48-.5H1.5A.5.5,0,0,1,2,6V8.014l-.3.6a1.609,1.609,0,0,0-.2.6v1.542A.244.244,0,0,0,1.744,11,.255.255,0,0,0,2,10.756V9.514a.367.367,0,0,1,.1-.3l.9-1.2V9l.467,1.816A.256.256,0,0,0,3.709,11a.25.25,0,0,0,.25-.25v-.016l-.242-1.61a.6.6,0,0,1,.025-.236L3.8,8.714,4,8H6V9l.466,1.816A.256.256,0,0,0,6.709,11a.25.25,0,0,0,.25-.25L6.718,9.124a.6.6,0,0,1,.025-.236L7,8a.877.877,0,0,0,.934-.661L8.5,4.5a.6.6,0,0,0,.71.454.562.562,0,0,0,.143-.07l.9.116a.721.721,0,0,0,.392.1A.331.331,0,0,0,11,4.784.406.406,0,0,0,10.88,4.5ZM6,3.5A.51.51,0,0,0,5.5,3h-1a.482.482,0,0,0-.5.5V5H6Z"/>
</svg>
